; generated by Slic3r 1.2.9 on 2018-09-10 at 17:44:38

; external perimeters extrusion width = 0.50mm
; perimeters extrusion width = 0.72mm
; infill extrusion width = 0.72mm
; solid infill extrusion width = 0.72mm
; top infill extrusion width = 0.72mm

M107
M104 S200 ; set temperature
G28 ; home all axes
G1 Z5 F5000 ; lift nozzle

M109 S200 ; wait for temperature to be reached
G21 ; set units to millimeters
G90 ; use absolute coordinates
M82 ; use absolute distances for extrusion
G92 E0
G1 Z0.350 F7800.000
G1 E-2.00000 F2400.00000
G92 E0
G1 X0.000 Y84.625 F7800.000
G1 E2.00000 F2400.00000
G1 X215.000 Y84.625 E8.65238 F1800.000
G1 X217.259 Y85.022 E8.72334
G1 X219.247 Y86.165 E8.79431 F1800.000
G1 X220.726 Y87.918 E8.86527
G1 X221.519 Y90.070 E8.93623
G1 X221.625 Y91.250 E8.97288
G1 X221.625 Y106.250 E9.43700
G1 X221.228 Y108.509 E9.50797
G1 X219.685 Y110.935 E9.59692
G1 X217.685 Y112.935 E9.68444
G1 X215.807 Y114.251 E9.75540
G1 X213.000 Y114.875 E9.84436
G1 X-13.000 Y114.875 E16.83710
G1 X-15.259 Y114.478 E16.90806
G1 X-17.685 Y112.935 E16.99702
G1 X-19.685 Y110.935 E17.08453
G1 X-21.001 Y109.057 E17.15549
G1 X-21.625 Y106.250 E17.24445
G1 X-21.625 Y91.250 E17.70857
G1 X-21.228 Y88.991 E17.77953
G1 X-20.085 Y87.003 E17.85050
G1 X-18.332 Y85.524 E17.92146
G1 X-16.180 Y84.731 E17.99242
G1 X-15.000 Y84.625 E18.02907
G1 X-0.075 Y84.625 E18.49087
G1 E16.49087 F2400.00000
G92 E0
G1 X-11.400 Y104.650 F7800.000
G1 E2.00000 F2400.00000
G1 X-13.400 Y104.650 E2.06188 F1800.000
G1 X-13.400 Y92.850 E2.42700
G1 X213.400 Y92.850 E9.44451
G1 X213.400 Y104.650 E9.80963
G1 X211.400 Y104.650 E9.87151
G1 X211.400 Y106.650 E9.93339
G1 X-11.400 Y106.650 E16.82713
G1 X-11.400 Y104.725 E16.88670
G1 X-12.025 Y105.275 F7800.000
G1 X-14.025 Y105.275 E16.94858 F1800.000
G1 X-14.025 Y92.225 E17.35237
G1 X214.025 Y92.225 E24.40854
G1 X214.025 Y105.275 E24.81233
G1 X212.025 Y105.275 E24.87422
G1 X212.025 Y107.275 E24.93610
G1 X-12.025 Y107.275 E31.86851
G1 X-12.025 Y105.350 E31.92807
G1 X-12.650 Y105.900 F7800.000
G1 X-14.650 Y105.900 E31.98995 F1800.000
G1 X-14.650 Y91.600 E32.43241
G1 X214.650 Y91.600 E39.52726
G1 X214.650 Y105.900 E39.96972
G1 X212.650 Y105.900 E40.03160
G1 X212.650 Y107.900 E40.09348
G1 X-12.650 Y107.900 E47.06456
G1 X-12.650 Y105.975 E47.12412
G1 X-12.650 Y105.400 F7800.000
G1 X-12.717 Y104.272 F7800.000
G1 X-13.022 Y103.967 E47.13750 F1800.000
G1 X-13.022 Y103.081 E47.16496
G1 X-11.831 Y104.272 E47.21718
G1 X-10.717 Y106.272 F7800.000
G1 X-11.022 Y105.967 E47.23055 F1800.000
G1 X-11.022 Y105.081 E47.25802
G1 X-9.831 Y106.272 E47.31023
G1 X-8.945 Y106.272 E47.33770
G1 X-13.022 Y102.195 E47.51646
G1 X-13.022 Y101.310 E47.54393
G1 X-8.060 Y106.272 E47.76153
G1 X-7.174 Y106.272 E47.78900
G1 X-13.022 Y100.424 E48.04544
G1 X-13.022 Y99.538 E48.07291
G1 X-6.288 Y106.272 E48.36820
G1 X-5.403 Y106.272 E48.39566
G1 X-13.022 Y98.653 E48.72979
G1 X-13.022 Y97.767 E48.75725
G1 X-4.517 Y106.272 E49.13022
G1 X-3.631 Y106.272 E49.15769
G1 X-13.022 Y96.881 E49.56950
G1 X-13.022 Y95.996 E49.59696
G1 X-2.746 Y106.272 E50.04761
G1 X-1.860 Y106.272 E50.07508
G1 X-13.022 Y95.110 E50.56457
G1 X-13.022 Y94.224 E50.59203
G1 X-0.974 Y106.272 E51.12037
G1 X-0.089 Y106.272 E51.14783
G1 X-13.022 Y93.339 E51.71501
G1 X-12.246 Y93.228 E51.73930
G1 X0.797 Y106.272 E52.31130
G1 X1.683 Y106.272 E52.33876
G1 X-11.360 Y93.228 E52.91077
G1 X-10.475 Y93.228 E52.93823
G1 X2.569 Y106.272 E53.51024
G1 X3.454 Y106.272 E53.53770
G1 X-9.589 Y93.228 E54.10971
G1 X-8.703 Y93.228 E54.13717
G1 X4.340 Y106.272 E54.70918
G1 X5.226 Y106.272 E54.73664
G1 X-7.818 Y93.228 E55.30865
G1 X-6.932 Y93.228 E55.33611
G1 X6.111 Y106.272 E55.90812
G1 X6.997 Y106.272 E55.93558
G1 X-6.046 Y93.228 E56.50758
G1 X-5.161 Y93.228 E56.53505
G1 X7.883 Y106.272 E57.10705
G1 X8.768 Y106.272 E57.13452
G1 X-4.275 Y93.228 E57.70652
G1 X-3.389 Y93.228 E57.73399
G1 X9.654 Y106.272 E58.30599
G1 X10.540 Y106.272 E58.33346
G1 X-2.504 Y93.228 E58.90546
G1 X-1.618 Y93.228 E58.93293
G1 X11.425 Y106.272 E59.50493
G1 X12.311 Y106.272 E59.53240
G1 X-0.732 Y93.228 E60.10440
G1 X0.153 Y93.228 E60.13186
G1 X13.197 Y106.272 E60.70387
G1 X14.082 Y106.272 E60.73133
G1 X1.039 Y93.228 E61.30334
G1 X1.925 Y93.228 E61.33080
G1 X14.968 Y106.272 E61.90281
G1 X15.854 Y106.272 E61.93027
G1 X2.810 Y93.228 E62.50228
G1 X3.696 Y93.228 E62.52974
G1 X16.739 Y106.272 E63.10175
G1 X17.625 Y106.272 E63.12921
G1 X4.582 Y93.228 E63.70121
G1 X5.467 Y93.228 E63.72868
G1 X18.511 Y106.272 E64.30068
G1 X19.396 Y106.272 E64.32815
G1 X6.353 Y93.228 E64.90015
G1 X7.239 Y93.228 E64.92762
G1 X20.282 Y106.272 E65.49962
G1 X21.168 Y106.272 E65.52709
G1 X8.125 Y93.228 E66.09909
G1 X9.010 Y93.228 E66.12656
G1 X22.053 Y106.272 E66.69856
G1 X22.939 Y106.272 E66.72603
G1 X9.896 Y93.228 E67.29803
G1 X10.782 Y93.228 E67.32549
G1 X23.825 Y106.272 E67.89750
G1 X24.711 Y106.272 E67.92496
G1 X11.667 Y93.228 E68.49697
G1 X12.553 Y93.228 E68.52443
G1 X25.596 Y106.272 E69.09644
G1 X26.482 Y106.272 E69.12390
G1 X13.439 Y93.228 E69.69591
G1 X14.324 Y93.228 E69.72337
G1 X27.368 Y106.272 E70.29538
G1 X28.253 Y106.272 E70.32284
G1 X15.210 Y93.228 E70.89484
G1 X16.096 Y93.228 E70.92231
G1 X29.139 Y106.272 E71.49431
G1 X30.025 Y106.272 E71.52178
G1 X16.981 Y93.228 E72.09378
G1 X17.867 Y93.228 E72.12125
G1 X30.910 Y106.272 E72.69325
G1 X31.796 Y106.272 E72.72072
G1 X18.753 Y93.228 E73.29272
G1 X19.638 Y93.228 E73.32019
G1 X32.682 Y106.272 E73.89219
G1 X33.567 Y106.272 E73.91966
G1 X20.524 Y93.228 E74.49166
G1 X21.410 Y93.228 E74.51912
G1 X34.453 Y106.272 E75.09113
G1 X35.339 Y106.272 E75.11859
G1 X22.295 Y93.228 E75.69060
G1 X23.181 Y93.228 E75.71806
G1 X36.224 Y106.272 E76.29007
G1 X37.110 Y106.272 E76.31753
G1 X24.067 Y93.228 E76.88954
G1 X24.952 Y93.228 E76.91700
G1 X37.996 Y106.272 E77.48901
G1 X38.881 Y106.272 E77.51647
G1 X25.838 Y93.228 E78.08847
G1 X26.724 Y93.228 E78.11594
G1 X39.767 Y106.272 E78.68794
G1 X40.653 Y106.272 E78.71541
G1 X27.609 Y93.228 E79.28741
G1 X28.495 Y93.228 E79.31488
G1 X41.538 Y106.272 E79.88688
G1 X42.424 Y106.272 E79.91435
G1 X29.381 Y93.228 E80.48635
G1 X30.267 Y93.228 E80.51382
G1 X43.310 Y106.272 E81.08582
G1 X44.195 Y106.272 E81.11329
G1 X31.152 Y93.228 E81.68529
G1 X32.038 Y93.228 E81.71275
G1 X45.081 Y106.272 E82.28476
G1 X45.967 Y106.272 E82.31222
G1 X32.924 Y93.228 E82.88423
G1 X33.809 Y93.228 E82.91169
G1 X46.853 Y106.272 E83.48370
G1 X47.738 Y106.272 E83.51116
G1 X34.695 Y93.228 E84.08317
G1 X35.581 Y93.228 E84.11063
G1 X48.624 Y106.272 E84.68264
G1 X49.510 Y106.272 E84.71010
G1 X36.466 Y93.228 E85.28210
G1 X37.352 Y93.228 E85.30957
G1 X50.395 Y106.272 E85.88157
G1 X51.281 Y106.272 E85.90904
G1 X38.238 Y93.228 E86.48104
G1 X39.123 Y93.228 E86.50851
G1 X52.167 Y106.272 E87.08051
G1 X53.052 Y106.272 E87.10798
G1 X40.009 Y93.228 E87.67998
G1 X40.895 Y93.228 E87.70745
G1 X53.938 Y106.272 E88.27945
G1 X54.824 Y106.272 E88.30692
G1 X41.780 Y93.228 E88.87892
G1 X42.666 Y93.228 E88.90638
G1 X55.709 Y106.272 E89.47839
G1 X56.595 Y106.272 E89.50585
G1 X43.552 Y93.228 E90.07786
G1 X44.437 Y93.228 E90.10532
G1 X57.481 Y106.272 E90.67733
G1 X58.366 Y106.272 E90.70479
G1 X45.323 Y93.228 E91.27680
G1 X46.209 Y93.228 E91.30426
G1 X59.252 Y106.272 E91.87627
G1 X60.138 Y106.272 E91.90373
G1 X47.094 Y93.228 E92.47573
G1 X47.980 Y93.228 E92.50320
G1 X61.023 Y106.272 E93.07520
G1 X61.909 Y106.272 E93.10267
G1 X48.866 Y93.228 E93.67467
G1 X49.751 Y93.228 E93.70214
G1 X62.795 Y106.272 E94.27414
G1 X63.680 Y106.272 E94.30161
G1 X50.637 Y93.228 E94.87361
G1 X51.523 Y93.228 E94.90108
G1 X64.566 Y106.272 E95.47308
G1 X65.452 Y106.272 E95.50055
G1 X52.408 Y93.228 E96.07255
G1 X53.294 Y93.228 E96.10001
G1 X66.337 Y106.272 E96.67202
G1 X67.223 Y106.272 E96.69948
G1 X54.180 Y93.228 E97.27149
G1 X55.066 Y93.228 E97.29895
G1 X68.109 Y106.272 E97.87096
G1 X68.995 Y106.272 E97.89842
G1 X55.951 Y93.228 E98.47043
G1 X56.837 Y93.228 E98.49789
G1 X69.880 Y106.272 E99.06990
G1 X70.766 Y106.272 E99.09736
G1 X57.723 Y93.228 E99.66936
G1 X58.608 Y93.228 E99.69683
G1 X71.652 Y106.272 E100.26883
G1 X72.537 Y106.272 E100.29630
G1 X59.494 Y93.228 E100.86830
G1 X60.380 Y93.228 E100.89577
G1 X73.423 Y106.272 E101.46777
G1 X74.309 Y106.272 E101.49524
G1 X61.265 Y93.228 E102.06724
G1 X62.151 Y93.228 E102.09471
G1 X75.194 Y106.272 E102.66671
G1 X76.080 Y106.272 E102.69418
G1 X63.037 Y93.228 E103.26618
G1 X63.922 Y93.228 E103.29364
G1 X76.966 Y106.272 E103.86565
G1 X77.851 Y106.272 E103.89311
G1 X64.808 Y93.228 E104.46512
G1 X65.694 Y93.228 E104.49258
G1 X78.737 Y106.272 E105.06459
G1 X79.623 Y106.272 E105.09205
G1 X66.579 Y93.228 E105.66406
G1 X67.465 Y93.228 E105.69152
G1 X80.508 Y106.272 E106.26353
G1 X81.394 Y106.272 E106.29099
G1 X68.351 Y93.228 E106.86299
G1 X69.236 Y93.228 E106.89046
G1 X82.280 Y106.272 E107.46246
G1 X83.165 Y106.272 E107.48993
G1 X70.122 Y93.228 E108.06193
G1 X71.008 Y93.228 E108.08940
G1 X84.051 Y106.272 E108.66140
G1 X84.937 Y106.272 E108.68887
G1 X71.893 Y93.228 E109.26087
G1 X72.779 Y93.228 E109.28834
G1 X85.822 Y106.272 E109.86034
G1 X86.708 Y106.272 E109.88780
G1 X73.665 Y93.228 E110.45981
G1 X74.550 Y93.228 E110.48727
G1 X87.594 Y106.272 E111.05928
G1 X88.479 Y106.272 E111.08674
G1 X75.436 Y93.228 E111.65875
G1 X76.322 Y93.228 E111.68621
G1 X89.365 Y106.272 E112.25822
G1 X90.251 Y106.272 E112.28568
G1 X77.208 Y93.228 E112.85769
G1 X78.093 Y93.228 E112.88515
G1 X91.136 Y106.272 E113.45715
G1 X92.022 Y106.272 E113.48462
G1 X78.979 Y93.228 E114.05662
G1 X79.865 Y93.228 E114.08409
G1 X92.908 Y106.272 E114.65609
G1 X93.794 Y106.272 E114.68356
G1 X80.750 Y93.228 E115.25556
G1 X81.636 Y93.228 E115.28303
G1 X94.679 Y106.272 E115.85503
G1 X95.565 Y106.272 E115.88250
G1 X82.522 Y93.228 E116.45450
G1 X83.407 Y93.228 E116.48197
G1 X96.451 Y106.272 E117.05397
G1 X97.336 Y106.272 E117.08143
G1 X84.293 Y93.228 E117.65344
G1 X85.179 Y93.228 E117.68090
G1 X98.222 Y106.272 E118.25291
G1 X99.108 Y106.272 E118.28037
G1 X86.064 Y93.228 E118.85238
G1 X86.950 Y93.228 E118.87984
G1 X99.993 Y106.272 E119.45185
G1 X100.879 Y106.272 E119.47931
G1 X87.836 Y93.228 E120.05132
G1 X88.721 Y93.228 E120.07878
G1 X101.765 Y106.272 E120.65078
G1 X102.650 Y106.272 E120.67825
G1 X89.607 Y93.228 E121.25025
G1 X90.493 Y93.228 E121.27772
G1 X103.536 Y106.272 E121.84972
G1 X104.422 Y106.272 E121.87719
G1 X91.378 Y93.228 E122.44919
G1 X92.264 Y93.228 E122.47666
G1 X105.307 Y106.272 E123.04866
G1 X106.193 Y106.272 E123.07613
G1 X93.150 Y93.228 E123.64813
G1 X94.035 Y93.228 E123.67559
G1 X107.079 Y106.272 E124.24760
G1 X107.964 Y106.272 E124.27506
G1 X94.921 Y93.228 E124.84707
G1 X95.807 Y93.228 E124.87453
G1 X108.850 Y106.272 E125.44654
G1 X109.736 Y106.272 E125.47400
G1 X96.692 Y93.228 E126.04601
G1 X97.578 Y93.228 E126.07347
G1 X110.621 Y106.272 E126.64548
G1 X111.507 Y106.272 E126.67294
G1 X98.464 Y93.228 E127.24494
G1 X99.350 Y93.228 E127.27241
G1 X112.393 Y106.272 E127.84441
G1 X113.278 Y106.272 E127.87188
G1 X100.235 Y93.228 E128.44388
G1 X101.121 Y93.228 E128.47135
G1 X114.164 Y106.272 E129.04335
G1 X115.050 Y106.272 E129.07082
G1 X102.007 Y93.228 E129.64282
G1 X102.892 Y93.228 E129.67029
G1 X115.936 Y106.272 E130.24229
G1 X116.821 Y106.272 E130.26975
G1 X103.778 Y93.228 E130.84176
G1 X104.664 Y93.228 E130.86922
G1 X117.707 Y106.272 E131.44123
G1 X118.593 Y106.272 E131.46869
G1 X105.549 Y93.228 E132.04070
G1 X106.435 Y93.228 E132.06816
G1 X119.478 Y106.272 E132.64017
G1 X120.364 Y106.272 E132.66763
G1 X107.321 Y93.228 E133.23964
G1 X108.206 Y93.228 E133.26710
G1 X121.250 Y106.272 E133.83910
G1 X122.135 Y106.272 E133.86657
G1 X109.092 Y93.228 E134.43857
G1 X109.978 Y93.228 E134.46604
G1 X123.021 Y106.272 E135.03804
G1 X123.907 Y106.272 E135.06551
G1 X110.863 Y93.228 E135.63751
G1 X111.749 Y93.228 E135.66498
G1 X124.792 Y106.272 E136.23698
G1 X125.678 Y106.272 E136.26445
G1 X112.635 Y93.228 E136.83645
G1 X113.520 Y93.228 E136.86392
G1 X126.564 Y106.272 E137.43592
G1 X127.449 Y106.272 E137.46338
G1 X114.406 Y93.228 E138.03539
G1 X115.292 Y93.228 E138.06285
G1 X128.335 Y106.272 E138.63486
G1 X129.221 Y106.272 E138.66232
G1 X116.177 Y93.228 E139.23433
G1 X117.063 Y93.228 E139.26179
G1 X130.106 Y106.272 E139.83380
G1 X130.992 Y106.272 E139.86126
G1 X117.949 Y93.228 E140.43326
G1 X118.834 Y93.228 E140.46073
G1 X131.878 Y106.272 E141.03273
G1 X132.763 Y106.272 E141.06020
G1 X119.720 Y93.228 E141.63220
G1 X120.606 Y93.228 E141.65967
G1 X133.649 Y106.272 E142.23167
G1 X134.535 Y106.272 E142.25914
G1 X121.492 Y93.228 E142.83114
G1 X122.377 Y93.228 E142.85861
G1 X135.420 Y106.272 E143.43061
G1 X136.306 Y106.272 E143.45807
G1 X123.263 Y93.228 E144.03008
G1 X124.149 Y93.228 E144.05754
G1 X137.192 Y106.272 E144.62955
G1 X138.078 Y106.272 E144.65701
G1 X125.034 Y93.228 E145.22902
G1 X125.920 Y93.228 E145.25648
G1 X138.963 Y106.272 E145.82849
G1 X139.849 Y106.272 E145.85595
G1 X126.806 Y93.228 E146.42796
G1 X127.691 Y93.228 E146.45542
G1 X140.735 Y106.272 E147.02742
G1 X141.620 Y106.272 E147.05489
G1 X128.577 Y93.228 E147.62689
G1 X129.463 Y93.228 E147.65436
G1 X142.506 Y106.272 E148.22636
G1 X143.392 Y106.272 E148.25383
G1 X130.348 Y93.228 E148.82583
G1 X131.234 Y93.228 E148.85330
G1 X144.277 Y106.272 E149.42530
G1 X145.163 Y106.272 E149.45277
G1 X132.120 Y93.228 E150.02477
G1 X133.005 Y93.228 E150.05223
G1 X146.049 Y106.272 E150.62424
G1 X146.934 Y106.272 E150.65170
G1 X133.891 Y93.228 E151.22371
G1 X134.777 Y93.228 E151.25117
G1 X147.820 Y106.272 E151.82318
G1 X148.706 Y106.272 E151.85064
G1 X135.662 Y93.228 E152.42265
G1 X136.548 Y93.228 E152.45011
G1 X149.591 Y106.272 E153.02212
G1 X150.477 Y106.272 E153.04958
G1 X137.434 Y93.228 E153.62158
G1 X138.319 Y93.228 E153.64905
G1 X151.363 Y106.272 E154.22105
G1 X152.248 Y106.272 E154.24852
G1 X139.205 Y93.228 E154.82052
G1 X140.091 Y93.228 E154.84799
G1 X153.134 Y106.272 E155.41999
G1 X154.020 Y106.272 E155.44746
G1 X140.976 Y93.228 E156.01946
G1 X141.862 Y93.228 E156.04693
G1 X154.905 Y106.272 E156.61893
G1 X155.791 Y106.272 E156.64639
G1 X142.748 Y93.228 E157.21840
G1 X143.634 Y93.228 E157.24586
G1 X156.677 Y106.272 E157.81787
G1 X157.562 Y106.272 E157.84533
G1 X144.519 Y93.228 E158.41734
G1 X145.405 Y93.228 E158.44480
G1 X158.448 Y106.272 E159.01681
G1 X159.334 Y106.272 E159.04427
G1 X146.291 Y93.228 E159.61628
G1 X147.176 Y93.228 E159.64374
G1 X160.220 Y106.272 E160.21574
G1 X161.105 Y106.272 E160.24321
G1 X148.062 Y93.228 E160.81521
G1 X148.948 Y93.228 E160.84268
G1 X161.991 Y106.272 E161.41468
G1 X162.877 Y106.272 E161.44215
G1 X149.833 Y93.228 E162.01415
G1 X150.719 Y93.228 E162.04162
G1 X163.762 Y106.272 E162.61362
G1 X164.648 Y106.272 E162.64109
G1 X151.605 Y93.228 E163.21309
G1 X152.490 Y93.228 E163.24055
G1 X165.534 Y106.272 E163.81256
G1 X166.419 Y106.272 E163.84002
G1 X153.376 Y93.228 E164.41203
G1 X154.262 Y93.228 E164.43949
G1 X167.305 Y106.272 E165.01150
G1 X168.191 Y106.272 E165.03896
G1 X155.147 Y93.228 E165.61097
G1 X156.033 Y93.228 E165.63843
G1 X169.076 Y106.272 E166.21044
G1 X169.962 Y106.272 E166.23790
G1 X156.919 Y93.228 E166.80990
G1 X157.804 Y93.228 E166.83737
G1 X170.848 Y106.272 E167.40937
G1 X171.733 Y106.272 E167.43684
G1 X158.690 Y93.228 E168.00884
G1 X159.576 Y93.228 E168.03631
G1 X172.619 Y106.272 E168.60831
G1 X173.505 Y106.272 E168.63578
G1 X160.461 Y93.228 E169.20778
G1 X161.347 Y93.228 E169.23525
G1 X174.390 Y106.272 E169.80725
G1 X175.276 Y106.272 E169.83471
G1 X162.233 Y93.228 E170.40672
G1 X163.118 Y93.228 E170.43418
G1 X176.162 Y106.272 E171.00619
G1 X177.047 Y106.272 E171.03365
G1 X164.004 Y93.228 E171.60566
G1 X164.890 Y93.228 E171.63312
G1 X177.933 Y106.272 E172.20513
G1 X178.819 Y106.272 E172.23259
G1 X165.775 Y93.228 E172.80460
G1 X166.661 Y93.228 E172.83206
G1 X179.704 Y106.272 E173.40406
G1 X180.590 Y106.272 E173.43153
G1 X167.547 Y93.228 E174.00353
G1 X168.433 Y93.228 E174.03100
G1 X181.476 Y106.272 E174.60300
G1 X182.362 Y106.272 E174.63047
G1 X169.318 Y93.228 E175.20247
G1 X170.204 Y93.228 E175.22994
G1 X183.247 Y106.272 E175.80194
G1 X184.133 Y106.272 E175.82941
G1 X171.090 Y93.228 E176.40141
G1 X171.975 Y93.228 E176.42887
G1 X185.019 Y106.272 E177.00088
