;FLAVOR:Marlin
;TIME:30310
;Filament used: 16.0148m
;Layer height: 0.1
;Generated with Cura_SteamEngine 3.1.0
M190 S60
M104 S210
M109 S210
M82 ; absolute extrusion mode
G28 ;Home
G1 Z15.0 F6000 ;Move the platform down 15mm
;Prime the extruder
G92 E0
G1 F200 E3
G92 E0
;LAYER_COUNT:175
;LAYER:0
M107
M204 S5000
M205 X30 Y30
G0 F3600 X84.966 Y32.902 Z0.2
M204 S500
M205 X20 Y20
;TYPE:SKIRT
G1 F1800 X85.239 Y32.241 E0.02379
G1 X85.583 Y31.614 E0.04757
G1 X85.996 Y31.03 E0.07136
G1 X86.471 Y30.496 E0.09513
G1 X87.003 Y30.017 E0.11894
G1 X87.585 Y29.602 E0.14272
G1 X88.21 Y29.253 E0.16653
G1 X88.87 Y28.977 E0.19032
G1 X89.556 Y28.776 E0.2141
G1 X90.261 Y28.653 E0.2379
G1 X91.009 Y28.609 E0.26282
G1 X208.001 Y28.612 E4.15399
G1 X208.715 Y28.652 E4.17778
G1 X209.421 Y28.771 E4.20159
G1 X210.108 Y28.969 E4.22537
G1 X210.769 Y29.242 E4.24915
G1 X211.396 Y29.587 E4.27296
G1 X211.98 Y29.999 E4.29673
G1 X212.522 Y30.482 E4.32087
G1 X213.509 Y31.467 E4.36725
G1 X213.986 Y32 E4.39104
G1 X214.401 Y32.582 E4.41482
G1 X214.748 Y33.208 E4.43862
G1 X215.023 Y33.868 E4.4624
G1 X215.223 Y34.555 E4.4862
G1 X215.345 Y35.259 E4.50997
G1 X215.388 Y35.998 E4.53459
G1 X215.358 Y264.073 E12.12039
G1 X215.318 Y264.787 E12.14418
G1 X215.198 Y265.492 E12.16796
G1 X215.001 Y266.18 E12.19177
G1 X214.728 Y266.841 E12.21555
G1 X214.383 Y267.467 E12.23933
G1 X213.97 Y268.052 E12.26314
G1 X213.483 Y268.597 E12.28745
G1 X212.595 Y269.485 E12.32922
G1 X212.062 Y269.962 E12.35301
G1 X211.479 Y270.376 E12.37679
G1 X210.853 Y270.723 E12.4006
G1 X210.193 Y270.998 E12.42438
G1 X209.506 Y271.197 E12.44817
G1 X208.801 Y271.318 E12.47196
G1 X208.072 Y271.36 E12.49625
G1 X91.011 Y271.39 E16.38971
G1 X90.296 Y271.35 E16.41353
G1 X89.591 Y271.231 E16.43731
G1 X88.904 Y271.034 E16.46108
G1 X88.242 Y270.761 E16.4849
G1 X87.616 Y270.416 E16.50867
G1 X87.031 Y270.004 E16.53247
G1 X86.497 Y269.529 E16.55624
G1 X86.019 Y268.997 E16.58003
G1 X85.603 Y268.415 E16.60382
G1 X85.254 Y267.79 E16.62763
G1 X84.978 Y267.131 E16.65139
G1 X84.776 Y266.444 E16.67521
G1 X84.653 Y265.74 E16.69898
G1 X84.609 Y264.99 E16.72397
G1 X84.609 Y35.009 E24.37317
G1 X84.649 Y34.295 E24.39695
G1 X84.768 Y33.59 E24.42073
G1 X84.966 Y32.902 E24.44454
M204 S5000
M205 X30 Y30
G0 F3600 X85.366 Y32.972
M204 S500
M205 X20 Y20
G1 F1800 X85.638 Y32.335 E24.46758
G1 X85.982 Y31.734 E24.49061
G1 X86.393 Y31.176 E24.51366
G1 X86.865 Y30.67 E24.53668
G1 X87.393 Y30.221 E24.55973
G1 X87.968 Y29.836 E24.58275
G1 X88.585 Y29.521 E24.60579
G1 X89.233 Y29.278 E24.62881
G1 X89.906 Y29.111 E24.65187
G1 X90.592 Y29.023 E24.67487
G1 X91.009 Y29.009 E24.68875
G1 X208.001 Y29.012 E28.57992
G1 X208.693 Y29.052 E28.60297
G1 X209.375 Y29.171 E28.626
G1 X210.039 Y29.369 E28.64905
G1 X210.675 Y29.641 E28.67205
G1 X211.276 Y29.985 E28.69509
G1 X211.834 Y30.396 E28.71814
G1 X212.239 Y30.765 E28.73636
G1 X213.226 Y31.75 E28.78274
G1 X213.687 Y32.267 E28.80578
G1 X214.086 Y32.833 E28.82881
G1 X214.417 Y33.442 E28.85186
G1 X214.675 Y34.084 E28.87488
G1 X214.857 Y34.752 E28.8979
G1 X214.962 Y35.437 E28.92095
G1 X214.988 Y35.998 E28.93963
G1 X214.958 Y264.073 E36.52544
G1 X214.918 Y264.764 E36.54846
G1 X214.798 Y265.446 E36.57149
G1 X214.601 Y266.11 E36.59453
G1 X214.329 Y266.747 E36.61756
G1 X213.985 Y267.348 E36.6406
G1 X213.574 Y267.905 E36.66362
G1 X213.201 Y268.315 E36.68205
G1 X212.313 Y269.203 E36.72382
G1 X211.796 Y269.663 E36.74684
G1 X211.229 Y270.061 E36.76988
G1 X210.62 Y270.391 E36.79292
G1 X209.977 Y270.649 E36.81596
G1 X209.309 Y270.831 E36.83899
G1 X208.624 Y270.934 E36.86203
G1 X208.072 Y270.96 E36.88041
G1 X91.011 Y270.99 E40.77387
G1 X90.319 Y270.95 E40.79693
G1 X89.637 Y270.831 E40.81995
G1 X88.973 Y270.634 E40.84299
G1 X88.336 Y270.362 E40.86603
G1 X87.735 Y270.018 E40.88906
G1 X87.177 Y269.607 E40.91211
G1 X86.671 Y269.135 E40.93513
G1 X86.222 Y268.608 E40.95815
G1 X85.837 Y268.032 E40.9812
G1 X85.521 Y267.416 E41.00422
G1 X85.278 Y266.767 E41.02727
G1 X85.112 Y266.095 E41.05029
G1 X85.024 Y265.408 E41.07333
G1 X85.009 Y264.99 E41.08724
G1 X85.009 Y35.009 E48.73644
G1 X85.049 Y34.318 E48.75946
G1 X85.168 Y33.635 E48.78252
G1 X85.366 Y32.972 E48.80554
M204 S5000
M205 X30 Y30
G0 F3600 X85.765 Y33.043
M204 S500
M205 X20 Y20
G1 F1800 X86.037 Y32.432 E48.82778
G1 X86.38 Y31.858 E48.85002
G1 X86.789 Y31.328 E48.87229
G1 X87.258 Y30.851 E48.89454
G1 X87.78 Y30.433 E48.91678
G1 X88.349 Y30.081 E48.93903
G1 X88.956 Y29.799 E48.96129
G1 X89.592 Y29.591 E48.98355
G1 X90.248 Y29.461 E49.00579
G1 X91.009 Y29.409 E49.03116
G1 X208.001 Y29.412 E52.92233
G1 X208.669 Y29.452 E52.94459
G1 X209.327 Y29.571 E52.96683
G1 X209.967 Y29.768 E52.9891
G1 X210.578 Y30.04 E53.01135
G1 X211.152 Y30.383 E53.03359
G1 X211.682 Y30.792 E53.05585
G1 X211.957 Y31.048 E53.06835
G1 X212.944 Y32.033 E53.11473
G1 X213.388 Y32.533 E53.13697
G1 X213.77 Y33.083 E53.15924
G1 X214.083 Y33.674 E53.18148
G1 X214.324 Y34.298 E53.20373
G1 X214.489 Y34.946 E53.22597
G1 X214.575 Y35.61 E53.24824
G1 X214.588 Y35.998 E53.26115
G1 X214.558 Y264.073 E60.84696
G1 X214.518 Y264.741 E60.86922
G1 X214.399 Y265.399 E60.89146
G1 X214.201 Y266.038 E60.91371
G1 X213.93 Y266.649 E60.93594
G1 X213.587 Y267.224 E60.95821
G1 X213.178 Y267.753 E60.98045
G1 X212.918 Y268.032 E60.99313
G1 X212.03 Y268.92 E61.0349
G1 X211.529 Y269.364 E61.05717
G1 X210.979 Y269.745 E61.07942
G1 X210.388 Y270.058 E61.10166
G1 X209.764 Y270.298 E61.1239
G1 X209.115 Y270.462 E61.14616
G1 X208.451 Y270.547 E61.16843
G1 X208.071 Y270.56 E61.18107
G1 X91.01 Y270.59 E65.07454
G1 X90.343 Y270.55 E65.09676
G1 X89.684 Y270.431 E65.11904
G1 X89.045 Y270.234 E65.14128
G1 X88.433 Y269.963 E65.16354
G1 X87.859 Y269.62 E65.18578
G1 X87.329 Y269.211 E65.20805
G1 X86.852 Y268.742 E65.23029
G1 X86.434 Y268.22 E65.25254
G1 X86.082 Y267.651 E65.27479
G1 X85.799 Y267.044 E65.29707
G1 X85.592 Y266.409 E65.31928
G1 X85.461 Y265.752 E65.34156
G1 X85.409 Y264.99 E65.36697
G1 X85.409 Y35.009 E73.01616
G1 X85.449 Y34.341 E73.03842
G1 X85.568 Y33.683 E73.06066
G1 X85.765 Y33.043 E73.08293
M204 S5000
M205 X30 Y30
G0 F3600 X86.165 Y33.118
M204 S500
M205 X20 Y20
G1 F1800 X86.436 Y32.533 E73.10438
G1 X86.778 Y31.986 E73.12583
G1 X87.184 Y31.486 E73.14726
G1 X87.649 Y31.04 E73.16869
G1 X88.166 Y30.655 E73.19013
G1 X88.727 Y30.336 E73.21159
G1 X89.323 Y30.09 E73.23304
G1 X89.944 Y29.919 E73.25446
G1 X90.582 Y29.827 E73.2759
G1 X91.009 Y29.809 E73.29011
G1 X208.001 Y29.812 E77.18128
G1 X208.645 Y29.852 E77.20274
G1 X209.278 Y29.971 E77.22417
G1 X209.892 Y30.168 E77.24561
G1 X210.477 Y30.439 E77.26706
G1 X211.024 Y30.781 E77.28851
G1 X211.674 Y31.331 E77.31683
G1 X212.661 Y32.316 E77.36321
G1 X213.088 Y32.799 E77.38465
G1 X213.453 Y33.331 E77.40611
G1 X213.748 Y33.904 E77.42755
G1 X213.971 Y34.509 E77.44899
G1 X214.116 Y35.137 E77.47043
G1 X214.188 Y35.998 E77.49917
G1 X214.158 Y264.073 E85.08497
G1 X214.118 Y264.716 E85.1064
G1 X213.999 Y265.35 E85.12786
G1 X213.802 Y265.964 E85.1493
G1 X213.53 Y266.548 E85.17073
G1 X213.189 Y267.095 E85.19217
G1 X212.635 Y267.749 E85.22068
G1 X211.747 Y268.637 E85.26245
G1 X211.264 Y269.064 E85.28389
G1 X210.731 Y269.427 E85.30534
G1 X210.158 Y269.722 E85.32677
G1 X209.553 Y269.944 E85.34821
G1 X208.925 Y270.089 E85.36964
G1 X208.071 Y270.16 E85.39815
G1 X91.01 Y270.19 E89.29161
G1 X90.367 Y270.15 E89.31304
G1 X89.733 Y270.031 E89.33449
G1 X89.119 Y269.835 E89.35593
G1 X88.534 Y269.563 E89.37739
G1 X87.988 Y269.222 E89.3988
G1 X87.487 Y268.816 E89.42025
G1 X87.041 Y268.351 E89.44168
G1 X86.655 Y267.834 E89.46314
G1 X86.337 Y267.273 E89.48458
G1 X86.09 Y266.678 E89.50601
G1 X85.919 Y266.056 E89.52747
G1 X85.827 Y265.418 E89.54891
G1 X85.809 Y264.99 E89.56315
G1 X85.809 Y35.009 E97.21235
G1 X85.849 Y34.366 E97.23378
G1 X85.968 Y33.732 E97.25524
G1 X86.165 Y33.118 E97.27668
M204 S5000
M205 X30 Y30
G1 F2400 E92.27668
G0 F3600 X90.335 Y35.614
G0 X91.614 Y35.614
G0 X100.33 Y59.33
G0 X100.4 Y59.4
M204 S500
M205 X20 Y20
;TYPE:WALL-INNER
G1 F2400 E97.27668
G1 F1800 X100.4 Y240.6 E103.30342
G1 X199.6 Y240.6 E106.60282
G1 X199.6 Y59.4 E112.62956
G1 X100.4 Y59.4 E115.92897
M204 S5000
M205 X30 Y30
G0 F3600 X100.33 Y59.33
G0 X208.308 Y36.209
G0 X208.4 Y36.171
M204 S500
M205 X20 Y20
G1 F1800 X208.397 Y263.801 E123.49997
G1 X207.795 Y264.4 E123.52822
G1 X91.6 Y264.4 E127.39288
G1 X91.6 Y35.6 E135.0028
G1 X207.829 Y35.6 E138.86859
G1 X208.4 Y36.171 E138.89545
M204 S5000
M205 X30 Y30
G0 F3600 X208.308 Y36.209
G0 X207.791 Y35.692
G0 X208.021 Y35.226
M204 S500
M205 X20 Y20
;TYPE:WALL-OUTER
G1 F1800 X208.775 Y35.98 E138.93091
G1 X208.8 Y36.04 E138.93308
G1 X208.797 Y263.966 E146.51392
G1 X207.96 Y264.8 E146.55322
G1 X91.2 Y264.8 E150.43668
G1 X91.2 Y35.2 E158.0732
G1 X207.959 Y35.2 E161.95662
G1 X208.021 Y35.226 E161.95886
M204 S5000
M205 X30 Y30
G0 F3600 X208.162 Y35.367
G0 X207.808 Y35.719
G0 X100.8 Y59.3
G0 X100.8 Y59.8
M204 S500
M205 X20 Y20
G1 F1800 X100.8 Y240.2 E167.95899
G1 X199.2 Y240.2 E171.23179
G1 X199.2 Y59.8 E177.23191
G1 X100.8 Y59.8 E180.50471
M204 S5000
M205 X30 Y30
G0 F3600 X100.8 Y60
G0 X100.3 Y60
G0 X100.01 Y59.01
M204 S500
M205 X20 Y20
;TYPE:SKIN
G1 F1800 X100.01 Y240.99 E186.55739
G1 X199.99 Y240.99 E189.88274
G1 X199.99 Y59.01 E195.93542
G1 X100.01 Y59.01 E199.26077
M204 S5000
M205 X30 Y30
G0 F3600 X91.99 Y35.99
M204 S500
M205 X20 Y20
G1 F1800 X207.669 Y35.99 E203.10827
G1 X208.01 Y36.331 E203.12431
G1 X208.007 Y263.639 E210.6846
G1 X207.633 Y264.01 E210.70212
G1 X91.99 Y264.01 E214.54842
G1 X91.99 Y35.99 E222.1324
M204 S5000
M205 X30 Y30
G0 F3600 X92.39 Y36.39
M204 S500
M205 X20 Y20
G1 F1800 X207.505 Y36.39 E225.96114
G1 X207.61 Y36.495 E225.96608
G1 X207.607 Y263.472 E233.51536
G1 X207.468 Y263.61 E233.52188
G1 X92.39 Y263.61 E237.34939
G1 X92.39 Y36.39 E244.90676
M204 S5000
M205 X30 Y30
G0 F3600 X92.79 Y36.79
M204 S500
M205 X20 Y20
G1 F1800 X207.21 Y36.79 E248.71238
G1 X207.207 Y263.21 E256.24314
G1 X92.79 Y263.21 E260.04867
G1 X92.79 Y36.79 E267.57943
M204 S5000
M205 X30 Y30
G0 F3600 X93.19 Y37.19
M204 S500
M205 X20 Y20
G1 F1800 X206.81 Y37.19 E271.35844
G1 X206.807 Y262.81 E278.86259
G1 X93.19 Y262.81 E282.64151
G1 X93.19 Y37.19 E290.14566
M204 S5000
M205 X30 Y30
G0 F3600 X93.59 Y37.59
M204 S500
M205 X20 Y20
G1 F1800 X206.41 Y37.59 E293.89807
G1 X206.407 Y262.41 E301.37562
G1 X93.59 Y262.41 E305.12792
G1 X93.59 Y37.59 E312.60547
M204 S5000
M205 X30 Y30
G0 F3600 X93.99 Y37.99
M204 S500
M205 X20 Y20
G1 F1800 X206.01 Y37.99 E316.33127
G1 X206.007 Y262.01 E323.7822
G1 X93.99 Y262.01 E327.5079
G1 X93.99 Y37.99 E334.95884
M204 S5000
M205 X30 Y30
G0 F3600 X94.39 Y38.39
M204 S500
M205 X20 Y20
G1 F1800 X205.61 Y38.39 E338.65803
G1 X205.607 Y261.61 E346.08236
G1 X94.39 Y261.61 E349.78145
G1 X94.39 Y38.39 E357.20578
M204 S5000
M205 X30 Y30
G0 F3600 X94.79 Y38.79
M204 S500
M205 X20 Y20
G1 F1800 X205.21 Y38.79 E360.87836
G1 X205.207 Y261.21 E368.27608
G1 X94.79 Y261.21 E371.94857
G1 X94.79 Y38.79 E379.34629
M204 S5000
M205 X30 Y30
G0 F3600 X95.19 Y39.19
M204 S500
M205 X20 Y20
G1 F1800 X204.81 Y39.19 E382.99226
G1 X204.807 Y260.81 E390.36337
G1 X95.19 Y260.81 E394.00925
G1 X95.19 Y39.19 E401.38036
M204 S5000
M205 X30 Y30
G0 F3600 X95.59 Y39.59
M204 S500
M205 X20 Y20
G1 F1800 X204.41 Y39.59 E404.99973
G1 X204.407 Y260.41 E412.34423
G1 X95.59 Y260.41 E415.9635
G1 X95.59 Y39.59 E423.308
M204 S5000
M205 X30 Y30
G0 F3600 X95.99 Y39.99
M204 S500
M205 X20 Y20
G1 F1800 X204.01 Y39.99 E426.90076
G1 X204.007 Y260.01 E434.21866
G1 X95.99 Y260.01 E437.81132
G1 X95.99 Y39.99 E445.12921
M204 S5000
M205 X30 Y30
G0 F3600 X96.39 Y40.39
M204 S500
M205 X20 Y20
G1 F1800 X203.61 Y40.39 E448.69536
G1 X203.61 Y54.61 E449.16832
G1 X96.39 Y54.61 E452.73447
G1 X96.39 Y40.39 E453.20743
M204 S5000
M205 X30 Y30
G0 F3600 X96.79 Y40.79
M204 S500
M205 X20 Y20
G1 F1800 X203.21 Y40.79 E456.74698
G1 X203.21 Y54.21 E457.19333
G1 X96.79 Y54.21 E460.73287
G1 X96.79 Y40.79 E461.17922
M204 S5000
M205 X30 Y30
G0 F3600 X97.19 Y41.19
M204 S500
M205 X20 Y20
G1 F1800 X202.81 Y41.19 E464.69216
G1 X202.81 Y53.81 E465.1119
G1 X97.19 Y53.81 E468.62484
G1 X97.19 Y41.19 E469.04458
M204 S5000
M205 X30 Y30
G0 F3600 X97.59 Y41.59
M204 S500
M205 X20 Y20
G1 F1800 X202.41 Y41.59 E472.53091
G1 X202.41 Y53.41 E472.92404
G1 X97.59 Y53.41 E476.41037
G1 X97.59 Y41.59 E476.8035
M204 S5000
M205 X30 Y30
G0 F3600 X97.99 Y41.99
M204 S500
M205 X20 Y20
G1 F1800 X202.01 Y41.99 E480.26322
G1 X202.01 Y53.01 E480.62975
G1 X97.99 Y53.01 E484.08947
G1 X97.99 Y41.99 E484.456
M204 S5000
M205 X30 Y30
G0 F3600 X98.39 Y42.39
M204 S500
M205 X20 Y20
G1 F1800 X201.61 Y42.39 E487.88911
G1 X201.61 Y52.61 E488.22902
G1 X98.39 Y52.61 E491.66214
G1 X98.39 Y42.39 E492.00205
M204 S5000
M205 X30 Y30
G0 F3600 X98.79 Y42.79
M204 S500
M205 X20 Y20
G1 F1800 X201.21 Y42.79 E495.40856
G1 X201.21 Y52.21 E495.72187
G1 X98.79 Y52.21 E499.12837
G1 X98.79 Y42.79 E499.44168
M204 S5000
M205 X30 Y30
G0 F3600 X99.19 Y43.19
M204 S500
M205 X20 Y20
G1 F1800 X200.81 Y43.19 E502.82158
G1 X200.81 Y51.81 E503.10828
G1 X99.19 Y51.81 E506.48817
G1 X99.19 Y43.19 E506.77488
M204 S5000
M205 X30 Y30
G0 F3600 X99.59 Y43.59
M204 S500
M205 X20 Y20
G1 F1800 X200.41 Y43.59 E510.12816
G1 X200.41 Y51.41 E510.38826
G1 X99.59 Y51.41 E513.74154
G1 X99.59 Y43.59 E514.00164
M204 S5000
M205 X30 Y30
G0 F3600 X99.99 Y43.99
M204 S500
M205 X20 Y20
G1 F1800 X200.01 Y43.99 E517.32832
G1 X200.01 Y51.01 E517.5618
G1 X99.99 Y51.01 E520.88848
G1 X99.99 Y43.99 E521.12197
M204 S5000
M205 X30 Y30
G0 F3600 X100.39 Y44.39
M204 S500
M205 X20 Y20
G1 F1800 X199.61 Y44.39 E524.42204
G1 X199.61 Y50.61 E524.62892
G1 X100.39 Y50.61 E527.92899
G1 X100.39 Y44.39 E528.13587
M204 S5000
M205 X30 Y30
G0 F3600 X100.79 Y44.79
M204 S500
M205 X20 Y20
G1 F1800 X199.21 Y44.79 E531.40933
G1 X199.21 Y50.21 E531.5896
G1 X100.79 Y50.21 E534.86306
G1 X100.79 Y44.79 E535.04333
M204 S5000
M205 X30 Y30
G0 F3600 X101.19 Y45.19
M204 S500
M205 X20 Y20
G1 F1800 X198.81 Y45.19 E538.29018
G1 X198.81 Y49.81 E538.44385
G1 X101.19 Y49.81 E541.6907
G1 X101.19 Y45.19 E541.84436
M204 S5000
M205 X30 Y30
G0 F3600 X101.59 Y45.59
M204 S500
M205 X20 Y20
G1 F1800 X198.41 Y45.59 E545.06461
G1 X198.41 Y49.41 E545.19166
G1 X101.59 Y49.41 E548.41191
G1 X101.59 Y45.59 E548.53896
M204 S5000
M205 X30 Y30
G0 F3600 X101.99 Y45.99
M204 S500
M205 X20 Y20
G1 F1800 X198.01 Y45.99 E551.7326
G1 X198.01 Y49.01 E551.83305
G1 X101.99 Y49.01 E555.02668
G1 X101.99 Y45.99 E555.12713
M204 S5000
M205 X30 Y30
G0 F3600 X102.39 Y46.39
M204 S500
M205 X20 Y20
G1 F1800 X197.61 Y46.39 E558.29416
G1 X197.61 Y48.61 E558.368
G1 X102.39 Y48.61 E561.53503
G1 X102.39 Y46.39 E561.60887
M204 S5000
M205 X30 Y30
G0 F3600 X102.79 Y46.79
M204 S500
M205 X20 Y20
G1 F1800 X197.21 Y46.79 E564.74929
G1 X197.21 Y48.21 E564.79652
G1 X102.79 Y48.21 E567.93694
G1 X102.79 Y46.79 E567.98417
M204 S5000
M205 X30 Y30
G0 F3600 X103.19 Y47.19
M204 S500
M205 X20 Y20
G1 F1800 X196.81 Y47.19 E571.09798
G1 X196.81 Y47.81 E571.1186
G1 X103.19 Y47.81 E574.23242
G1 X103.19 Y47.19 E574.25304
M204 S5000
M205 X30 Y30
G0 F3600 X96.01 Y55.01
M204 S500
M205 X20 Y20
G1 F1800 X96.01 Y244.99 E580.5718
G1 X203.99 Y244.99 E584.16323
G1 X203.99 Y55.01 E590.48199
G1 X96.01 Y55.01 E594.07342
M204 S5000
M205 X30 Y30
G0 F3600 X96.41 Y55.41
M204 S500
M205 X20 Y20
G1 F1800 X96.41 Y244.59 E600.36557
G1 X203.59 Y244.59 E603.93039
G1 X203.59 Y55.41 E610.22254
G1 X96.41 Y55.41 E613.78737
M204 S5000
M205 X30 Y30
G0 F3600 X96.81 Y55.81
M204 S500
M205 X20 Y20
G1 F1800 X96.81 Y244.19 E620.05291
G1 X203.19 Y244.19 E623.59112
G1 X203.19 Y55.81 E629.85667
G1 X96.81 Y55.81 E633.39488
M204 S5000
M205 X30 Y30
G0 F3600 X97.21 Y56.21
M204 S500
M205 X20 Y20
G1 F1800 X97.21 Y243.79 E639.63382
G1 X202.79 Y243.79 E643.14542
G1 X202.79 Y56.21 E649.38436
G1 X97.21 Y56.21 E652.89596
M204 S5000
M205 X30 Y30
G0 F3600 X97.61 Y56.61
M204 S500
M205 X20 Y20
G1 F1800 X97.61 Y243.39 E659.10829
G1 X202.39 Y243.39 E662.59329
G1 X202.39 Y56.61 E668.80562
G1 X97.61 Y56.61 E672.29061
M204 S5000
M205 X30 Y30
G0 F3600 X98.01 Y57.01
M204 S500
M205 X20 Y20
G1 F1800 X98.01 Y242.99 E678.47633
G1 X201.99 Y242.99 E681.93472
G1 X201.99 Y57.01 E688.12044
G1 X98.01 Y57.01 E691.57883
M204 S5000
