;FLAVOR:Marlin
;TIME:33481
;Filament used: 16.9453m
;Layer height: 0.1
;Generated with Cura_SteamEngine 3.1.0
M190 S60
M104 S210
M109 S210
M82 ; absolute extrusion mode
G28 ;Home
G1 Z15.0 F6000 ;Move the platform down 15mm
;Prime the extruder
G92 E0
G1 F200 E3
G92 E0
;LAYER_COUNT:30
;LAYER:0
M107
M204 S5000
M205 X30 Y30
G0 F3600 X42.771 Y51.086 Z0.2
M204 S500
M205 X20 Y20
;TYPE:SKIRT
G1 F1800 X43.089 Y50.846 E0.01325
G1 X44.794 Y49.646 E0.0826
G1 X45.401 Y49.268 E0.10638
G1 X45.759 Y49.086 E0.11974
G1 X47.66 Y48.194 E0.18958
G1 X48.324 Y47.927 E0.21338
G1 X48.71 Y47.809 E0.22681
G1 X50.728 Y47.264 E0.29633
G1 X51.428 Y47.117 E0.32012
G1 X51.957 Y47.058 E0.33783
G1 X54.833 Y46.86 E0.43371
G1 X55.273 Y46.845 E0.44835
G1 X245.472 Y46.855 E6.7744
G1 X246.024 Y46.879 E6.79277
G1 X248.113 Y47.06 E6.86251
G1 X248.821 Y47.161 E6.8863
G1 X249.203 Y47.25 E6.89935
G1 X251.222 Y47.786 E6.96882
G1 X251.902 Y48.008 E6.99262
G1 X252.274 Y48.167 E7.00607
G1 X254.166 Y49.045 E7.07544
G1 X254.797 Y49.382 E7.09924
G1 X255.135 Y49.602 E7.11265
G1 X256.86 Y50.806 E7.18262
G1 X257.423 Y51.247 E7.2064
G1 X257.716 Y51.522 E7.21977
G1 X259.185 Y52.987 E7.28877
G1 X259.663 Y53.52 E7.31258
G1 X259.902 Y53.839 E7.32584
G1 X261.104 Y55.549 E7.39536
G1 X261.482 Y56.156 E7.41915
G1 X261.662 Y56.512 E7.43241
G1 X262.553 Y58.412 E7.50221
G1 X262.821 Y59.075 E7.526
G1 X262.937 Y59.459 E7.53934
G1 X263.479 Y61.464 E7.60842
G1 X263.627 Y62.164 E7.63222
G1 X263.686 Y62.691 E7.64985
G1 X263.885 Y65.558 E7.74544
G1 X263.9 Y66.003 E7.76025
G1 X263.89 Y93.763 E8.68355
G1 X263.861 Y94.369 E8.70373
G1 X263.411 Y99.083 E8.86123
G1 X263.182 Y104.394 E9.03804
G1 X263.253 Y109.68 E9.21387
G1 X263.628 Y115.024 E9.39205
G1 X263.853 Y117.094 E9.4613
G1 X263.891 Y117.783 E9.48425
G1 X263.9 Y136.585 E10.10961
G1 X263.885 Y137.023 E10.12419
G1 X263.697 Y139.783 E10.2162
G1 X263.609 Y140.493 E10.23999
G1 X263.497 Y140.992 E10.257
G1 X262.96 Y143.013 E10.32655
G1 X262.738 Y143.692 E10.35031
G1 X262.581 Y144.061 E10.36365
G1 X261.7 Y145.961 E10.43331
G1 X261.364 Y146.592 E10.45708
G1 X261.145 Y146.928 E10.47042
G1 X259.952 Y148.64 E10.53983
G1 X259.511 Y149.203 E10.56361
G1 X259.236 Y149.497 E10.577
G1 X257.762 Y150.977 E10.64648
G1 X257.229 Y151.455 E10.67029
G1 X256.911 Y151.695 E10.68354
G1 X255.206 Y152.895 E10.75289
G1 X254.599 Y153.273 E10.77667
G1 X254.239 Y153.455 E10.79009
G1 X252.337 Y154.347 E10.85996
G1 X251.674 Y154.614 E10.88373
G1 X251.289 Y154.732 E10.89712
G1 X249.275 Y155.276 E10.96651
G1 X248.575 Y155.423 E10.9903
G1 X248.047 Y155.482 E11.00797
G1 X245.182 Y155.68 E11.10349
G1 X244.741 Y155.695 E11.11816
G1 X54.536 Y155.686 E17.44441
G1 X53.988 Y155.662 E17.46265
G1 X51.894 Y155.482 E17.53256
G1 X51.186 Y155.382 E17.55634
G1 X50.799 Y155.292 E17.56955
G1 X48.777 Y154.755 E17.63914
G1 X48.097 Y154.533 E17.66293
G1 X47.726 Y154.374 E17.67635
G1 X45.834 Y153.496 E17.74573
G1 X45.203 Y153.159 E17.76952
G1 X44.865 Y152.939 E17.78293
G1 X43.14 Y151.735 E17.8529
G1 X42.577 Y151.294 E17.87669
G1 X42.284 Y151.019 E17.89005
G1 X40.818 Y149.557 E17.95891
G1 X40.34 Y149.024 E17.98273
G1 X40.102 Y148.707 E17.99591
G1 X38.895 Y146.991 E18.06569
G1 X38.517 Y146.384 E18.08947
G1 X38.336 Y146.028 E18.10276
G1 X37.45 Y144.14 E18.17212
G1 X37.183 Y143.476 E18.19592
G1 X37.066 Y143.093 E18.20924
G1 X36.52 Y141.076 E18.27874
G1 X36.372 Y140.377 E18.30251
G1 X36.313 Y139.845 E18.32031
G1 X36.115 Y136.977 E18.41593
G1 X36.1 Y136.535 E18.43064
G1 X36.109 Y65.28 E20.80059
G1 X36.133 Y64.732 E20.81883
G1 X36.313 Y62.64 E20.88867
G1 X36.414 Y61.932 E20.91246
G1 X36.503 Y61.546 E20.92563
G1 X37.039 Y59.528 E20.99508
G1 X37.261 Y58.848 E21.01887
G1 X37.418 Y58.479 E21.03221
G1 X38.295 Y56.587 E21.10157
G1 X38.632 Y55.956 E21.12536
G1 X38.851 Y55.621 E21.13867
G1 X40.05 Y53.9 E21.20843
G1 X40.491 Y53.336 E21.23225
G1 X40.766 Y53.042 E21.24564
G1 X42.238 Y51.564 E21.31502
G1 X42.771 Y51.086 E21.33883
M204 S5000
M205 X30 Y30
G0 F3600 X43.038 Y51.384
M204 S500
M205 X20 Y20
G1 F1800 X43.32 Y51.173 E21.35054
G1 X45.025 Y49.973 E21.41989
G1 X45.613 Y49.608 E21.44291
G1 X45.929 Y49.448 E21.45469
G1 X47.83 Y48.556 E21.52453
G1 X48.473 Y48.299 E21.54756
G1 X48.815 Y48.196 E21.55944
G1 X50.833 Y47.651 E21.62896
G1 X51.511 Y47.509 E21.652
G1 X51.985 Y47.457 E21.66786
G1 X54.861 Y47.259 E21.76375
G1 X55.273 Y47.245 E21.77746
G1 X245.472 Y47.255 E28.1035
G1 X245.99 Y47.277 E28.12075
G1 X248.079 Y47.458 E28.19049
G1 X249.101 Y47.637 E28.225
G1 X251.12 Y48.173 E28.29447
G1 X251.778 Y48.389 E28.31751
G1 X252.106 Y48.529 E28.32937
G1 X253.998 Y49.407 E28.39874
G1 X254.608 Y49.735 E28.42178
G1 X254.906 Y49.93 E28.43363
G1 X256.631 Y51.134 E28.50359
G1 X257.175 Y51.562 E28.52661
G1 X257.434 Y51.806 E28.53845
G1 X258.903 Y53.271 E28.60745
G1 X259.364 Y53.787 E28.63047
G1 X259.575 Y54.069 E28.64218
G1 X260.777 Y55.779 E28.7117
G1 X261.142 Y56.367 E28.73472
G1 X261.3 Y56.682 E28.74644
G1 X262.191 Y58.582 E28.81624
G1 X262.449 Y59.224 E28.83925
G1 X262.551 Y59.563 E28.85103
G1 X263.093 Y61.568 E28.92011
G1 X263.235 Y62.246 E28.94315
G1 X263.287 Y62.719 E28.95897
G1 X263.486 Y65.586 E29.05456
G1 X263.5 Y66.003 E29.06844
G1 X263.49 Y93.763 E29.99174
G1 X263.463 Y94.331 E30.01065
G1 X263.011 Y99.066 E30.16885
G1 X262.781 Y104.382 E30.34583
G1 X262.853 Y109.695 E30.52256
G1 X263.228 Y115.043 E30.70087
G1 X263.456 Y117.137 E30.77093
G1 X263.491 Y117.783 E30.79244
G1 X263.5 Y136.585 E31.4178
G1 X263.486 Y136.996 E31.43148
G1 X263.298 Y139.756 E31.52349
G1 X263.211 Y140.443 E31.54652
G1 X263.111 Y140.889 E31.56172
G1 X262.574 Y142.91 E31.63128
G1 X262.358 Y143.568 E31.65431
G1 X262.218 Y143.893 E31.66608
G1 X261.337 Y145.793 E31.73574
G1 X261.01 Y146.403 E31.75876
G1 X260.817 Y146.699 E31.77051
G1 X259.624 Y148.411 E31.83991
G1 X259.196 Y148.956 E31.86296
G1 X258.952 Y149.215 E31.8748
G1 X257.478 Y150.695 E31.94427
G1 X256.962 Y151.157 E31.96731
G1 X256.68 Y151.368 E31.97902
G1 X254.975 Y152.568 E32.04837
G1 X254.387 Y152.933 E32.07138
G1 X254.07 Y153.093 E32.08319
G1 X252.168 Y153.985 E32.15307
G1 X251.525 Y154.243 E32.17611
G1 X251.185 Y154.345 E32.18792
G1 X249.171 Y154.889 E32.2573
G1 X248.493 Y155.031 E32.28034
G1 X248.02 Y155.083 E32.29617
G1 X245.155 Y155.281 E32.39169
G1 X244.741 Y155.295 E32.40546
G1 X54.536 Y155.286 E38.73171
G1 X54.022 Y155.264 E38.74882
G1 X51.928 Y155.084 E38.81872
G1 X51.243 Y154.985 E38.84174
G1 X50.902 Y154.905 E38.85339
G1 X48.88 Y154.368 E38.92298
G1 X48.222 Y154.152 E38.94601
G1 X47.894 Y154.012 E38.95787
G1 X46.002 Y153.134 E39.02725
G1 X45.392 Y152.806 E39.05028
G1 X45.094 Y152.611 E39.06213
G1 X43.369 Y151.407 E39.13209
G1 X42.825 Y150.979 E39.15512
G1 X42.566 Y150.735 E39.16695
G1 X41.1 Y149.273 E39.23581
G1 X40.639 Y148.757 E39.25883
G1 X40.429 Y148.477 E39.27047
G1 X39.222 Y146.761 E39.34025
G1 X38.857 Y146.172 E39.36329
G1 X38.698 Y145.858 E39.375
G1 X37.812 Y143.97 E39.44437
G1 X37.555 Y143.327 E39.4674
G1 X37.452 Y142.989 E39.47915
G1 X36.906 Y140.972 E39.54865
G1 X36.764 Y140.294 E39.57169
G1 X36.712 Y139.817 E39.58765
G1 X36.514 Y136.949 E39.68327
G1 X36.5 Y136.535 E39.69704
G1 X36.509 Y65.28 E42.06699
G1 X36.531 Y64.767 E42.08407
G1 X36.711 Y62.675 E42.15391
G1 X36.81 Y61.989 E42.17696
G1 X36.89 Y61.649 E42.18858
G1 X37.426 Y59.631 E42.25803
G1 X37.642 Y58.973 E42.28106
G1 X37.781 Y58.648 E42.29282
G1 X38.658 Y56.756 E42.36218
G1 X38.985 Y56.145 E42.38523
G1 X39.179 Y55.849 E42.397
G1 X40.378 Y54.128 E42.46676
G1 X40.806 Y53.584 E42.48978
G1 X41.05 Y53.324 E42.50164
G1 X42.522 Y51.846 E42.57102
G1 X43.038 Y51.384 E42.59406
M204 S5000
M205 X30 Y30
G0 F3600 X43.55 Y51.501
M204 S500
M205 X20 Y20
G1 F1800 X45.255 Y50.301 E42.6634
G1 X46.099 Y49.81 E42.69588
G1 X48 Y48.918 E42.76572
G1 X48.919 Y48.582 E42.79827
G1 X50.937 Y48.037 E42.86779
G1 X51.592 Y47.901 E42.89004
G1 X52.012 Y47.856 E42.90409
G1 X54.888 Y47.658 E42.99997
G1 X55.273 Y47.645 E43.01278
G1 X245.472 Y47.655 E49.33883
G1 X245.955 Y47.676 E49.35491
G1 X248.044 Y47.857 E49.42465
G1 X248.998 Y48.023 E49.45686
G1 X251.017 Y48.559 E49.52633
G1 X251.937 Y48.892 E49.55888
G1 X253.829 Y49.77 E49.62825
G1 X254.677 Y50.258 E49.66079
G1 X256.402 Y51.462 E49.73076
G1 X257.151 Y52.089 E49.76325
G1 X258.62 Y53.554 E49.83225
G1 X259.247 Y54.299 E49.86464
G1 X260.449 Y56.009 E49.93416
G1 X260.938 Y56.851 E49.96654
G1 X261.829 Y58.751 E50.03634
G1 X262.165 Y59.668 E50.06882
G1 X262.707 Y61.673 E50.1379
G1 X262.843 Y62.328 E50.16015
G1 X262.888 Y62.746 E50.17413
G1 X263.087 Y65.613 E50.26972
G1 X263.1 Y66.003 E50.2827
G1 X263.09 Y93.763 E51.206
G1 X263.065 Y94.293 E51.22365
G1 X262.613 Y99.03 E51.38192
G1 X262.381 Y104.388 E51.56029
G1 X262.453 Y109.711 E51.73735
G1 X262.83 Y115.087 E51.9166
G1 X263.058 Y117.18 E51.98662
G1 X263.091 Y117.783 E52.00671
G1 X263.1 Y136.585 E52.63207
G1 X263.087 Y136.969 E52.64485
G1 X262.899 Y139.729 E52.73686
G1 X262.814 Y140.392 E52.75909
G1 X262.724 Y140.786 E52.77253
G1 X262.187 Y142.807 E52.84208
G1 X261.855 Y143.725 E52.87455
G1 X260.974 Y145.625 E52.94421
G1 X260.488 Y146.471 E52.97666
G1 X259.295 Y148.183 E53.04606
G1 X258.669 Y148.933 E53.07855
G1 X257.195 Y150.413 E53.14803
G1 X256.45 Y151.04 E53.18041
G1 X254.745 Y152.24 E53.24976
G1 X253.9 Y152.731 E53.28226
G1 X251.998 Y153.623 E53.35214
G1 X251.08 Y153.959 E53.38465
G1 X249.066 Y154.503 E53.45404
G1 X248.411 Y154.639 E53.47629
G1 X247.992 Y154.684 E53.4903
G1 X245.127 Y154.882 E53.58582
G1 X244.741 Y154.895 E53.59867
G1 X54.536 Y154.886 E59.92491
G1 X54.056 Y154.865 E59.94089
G1 X51.962 Y154.685 E60.01079
G1 X51.005 Y154.518 E60.0431
G1 X48.983 Y153.981 E60.11269
G1 X48.063 Y153.649 E60.14522
G1 X46.171 Y152.771 E60.21459
G1 X45.323 Y152.283 E60.24713
G1 X43.598 Y151.079 E60.3171
G1 X42.849 Y150.452 E60.34959
G1 X41.383 Y148.99 E60.41845
G1 X40.757 Y148.247 E60.45076
G1 X39.55 Y146.531 E60.52054
G1 X39.06 Y145.688 E60.55297
G1 X38.174 Y143.8 E60.62234
G1 X37.839 Y142.884 E60.65478
G1 X37.293 Y140.867 E60.72428
G1 X37.157 Y140.212 E60.74653
G1 X37.111 Y139.79 E60.76065
G1 X36.913 Y136.922 E60.85627
G1 X36.9 Y136.535 E60.86915
G1 X36.909 Y65.28 E63.2391
G1 X36.93 Y64.801 E63.25504
G1 X37.11 Y62.709 E63.32488
G1 X37.277 Y61.751 E63.35722
G1 X37.813 Y59.733 E63.42667
G1 X38.144 Y58.816 E63.4591
G1 X39.021 Y56.924 E63.52846
G1 X39.507 Y56.078 E63.56091
G1 X40.706 Y54.357 E63.63067
G1 X41.333 Y53.606 E63.66321
G1 X42.805 Y52.128 E63.73259
G1 X43.55 Y51.501 E63.76497
M204 S5000
M205 X30 Y30
G0 F3600 X43.78 Y51.828
M204 S500
M205 X20 Y20
G1 F1800 X45.485 Y50.628 E63.83432
G1 X46.269 Y50.172 E63.86449
G1 X48.17 Y49.28 E63.93433
G1 X49.023 Y48.968 E63.96454
G1 X51.041 Y48.423 E64.03406
G1 X51.673 Y48.294 E64.05552
G1 X52.04 Y48.255 E64.06779
G1 X54.916 Y48.057 E64.16367
G1 X55.273 Y48.045 E64.17555
G1 X245.472 Y48.055 E70.5016
G1 X245.921 Y48.074 E70.51655
G1 X248.01 Y48.255 E70.58629
G1 X248.895 Y48.41 E70.61617
G1 X250.914 Y48.946 E70.68565
G1 X251.769 Y49.255 E70.71588
G1 X253.661 Y50.133 E70.78526
G1 X254.448 Y50.586 E70.81546
G1 X256.173 Y51.79 E70.88543
G1 X256.869 Y52.372 E70.9156
G1 X258.338 Y53.837 E70.98461
G1 X258.92 Y54.529 E71.01468
G1 X260.122 Y56.239 E71.0842
G1 X260.576 Y57.021 E71.11428
G1 X261.467 Y58.921 E71.18407
G1 X261.779 Y59.772 E71.21422
G1 X262.321 Y61.777 E71.2833
G1 X262.45 Y62.409 E71.30475
G1 X262.489 Y62.774 E71.31696
G1 X262.688 Y65.641 E71.41255
G1 X262.7 Y66.003 E71.4246
G1 X262.69 Y93.763 E72.3479
G1 X262.666 Y94.255 E72.36428
G1 X262.213 Y98.995 E72.52265
G1 X261.982 Y104.358 E72.70119
G1 X262.054 Y109.744 E72.88035
G1 X262.432 Y115.131 E73.05996
G1 X262.66 Y117.223 E73.12995
G1 X262.691 Y117.784 E73.14864
G1 X262.7 Y136.586 E73.774
G1 X262.688 Y136.941 E73.78581
G1 X262.5 Y139.701 E73.87782
G1 X262.416 Y140.341 E73.89929
G1 X262.338 Y140.683 E73.91096
G1 X261.801 Y142.704 E73.98051
G1 X261.493 Y143.556 E74.01064
G1 X260.612 Y145.456 E74.0803
G1 X260.16 Y146.242 E74.11046
G1 X258.967 Y147.954 E74.17986
G1 X258.385 Y148.65 E74.21003
G1 X256.911 Y150.13 E74.27951
G1 X256.22 Y150.713 E74.30958
G1 X254.515 Y151.913 E74.37892
G1 X253.73 Y152.369 E74.40912
G1 X251.828 Y153.261 E74.47899
G1 X250.976 Y153.573 E74.50917
G1 X248.962 Y154.117 E74.57856
G1 X248.33 Y154.246 E74.60001
G1 X247.965 Y154.285 E74.61222
G1 X245.1 Y154.483 E74.70774
G1 X244.741 Y154.495 E74.71968
G1 X54.536 Y154.486 E81.04593
G1 X54.091 Y154.467 E81.06074
G1 X51.997 Y154.287 E81.13064
G1 X51.107 Y154.132 E81.16069
G1 X49.085 Y153.595 E81.23028
G1 X48.231 Y153.286 E81.26048
G1 X46.339 Y152.408 E81.32986
G1 X45.552 Y151.955 E81.36006
G1 X43.827 Y150.751 E81.43002
G1 X43.131 Y150.169 E81.4602
G1 X41.665 Y148.707 E81.52906
G1 X41.084 Y148.017 E81.55906
G1 X39.877 Y146.301 E81.62884
G1 X39.423 Y145.518 E81.65895
G1 X38.537 Y143.63 E81.72831
G1 X38.225 Y142.78 E81.75843
G1 X37.679 Y140.763 E81.82793
G1 X37.549 Y140.131 E81.84939
G1 X37.51 Y139.762 E81.86173
G1 X37.312 Y136.894 E81.95735
G1 X37.3 Y136.535 E81.96929
G1 X37.309 Y65.28 E84.33925
G1 X37.328 Y64.835 E84.35406
G1 X37.508 Y62.743 E84.4239
G1 X37.663 Y61.854 E84.45391
G1 X38.199 Y59.836 E84.52336
G1 X38.507 Y58.984 E84.55349
G1 X39.384 Y57.092 E84.62285
G1 X39.835 Y56.306 E84.65299
G1 X41.034 Y54.585 E84.72275
G1 X41.617 Y53.889 E84.75295
G1 X43.089 Y52.411 E84.82233
G1 X43.78 Y51.828 E84.8524
M204 S5000
M205 X30 Y30
G1 F2400 E79.8524
G0 F3600 X44.878 Y57.02
G0 X45.786 Y57.928
G0 X45.83 Y72.35
G0 X45.9 Y72.42
M204 S500
M205 X20 Y20
;TYPE:WALL-INNER
G1 F2400 E84.8524
G1 F1800 X45.9 Y88.62 E85.39121
G1 X50.1 Y88.62 E85.53091
G1 X50.1 Y72.42 E86.06972
G1 X45.9 Y72.42 E86.20941
M204 S5000
M205 X30 Y30
G0 F3600 X45.83 Y72.35
G0 X57.992 Y62.076
G0 X58.773 Y61.753
G0 X74.331 Y77.258
G0 X74.231 Y77.258
M204 S500
M205 X20 Y20
G1 F1800 X58.766 Y61.792 E86.93686
G1 X58.025 Y62.098 E86.96353
G1 X58.025 Y92.417 E87.97194
G1 X58.766 Y92.723 E87.99861
G1 X74.231 Y77.258 E88.72603
M204 S5000
M205 X30 Y30
G0 F3600 X74.331 Y77.258
G0 X77.625 Y80.551
G0 X77.625 Y80.651
M204 S500
M205 X20 Y20
G1 F1800 X77.484 Y80.792 E88.73266
G1 X62.16 Y96.117 E89.45348
G1 X62.466 Y96.858 E89.48015
G1 X92.784 Y96.858 E90.48853
G1 X93.09 Y96.117 E90.51519
G1 X77.766 Y80.792 E91.23601
G1 X77.625 Y80.651 E91.24029
M204 S5000
M205 X30 Y30
G0 F3600 X77.625 Y80.551
G0 X80.919 Y77.258
G0 X81.019 Y77.258
M204 S500
M205 X20 Y20
G1 F1800 X96.484 Y92.723 E91.96772
G1 X97.225 Y92.417 E91.99438
G1 X97.225 Y62.098 E93.0028
G1 X96.484 Y61.792 E93.02946
G1 X81.019 Y77.258 E93.75691
M204 S5000
M205 X30 Y30
G0 F3600 X80.919 Y77.258
G0 X77.625 Y73.964
G0 X77.625 Y73.864
M204 S500
M205 X20 Y20
G1 F1800 X93.09 Y58.399 E94.48434
G1 X92.784 Y57.658 E94.511
G1 X62.466 Y57.658 E95.51938
G1 X62.16 Y58.399 E95.54605
G1 X77.625 Y73.864 E96.27347
M204 S5000
M205 X30 Y30
G0 F3600 X77.625 Y73.964
G0 X96.477 Y61.753
G0 X107.023 Y61.753
G0 X122.581 Y77.258
G0 X122.481 Y77.258
M204 S500
M205 X20 Y20
G1 F1800 X107.016 Y61.792 E97.00092
G1 X106.275 Y62.098 E97.02759
G1 X106.275 Y92.417 E98.036
G1 X107.016 Y92.723 E98.06267
G1 X122.481 Y77.258 E98.79009
M204 S5000
M205 X30 Y30
G0 F3600 X122.581 Y77.258
G0 X125.875 Y80.551
G0 X125.875 Y80.651
M204 S500
M205 X20 Y20
G1 F1800 X125.734 Y80.792 E98.79672
G1 X110.41 Y96.117 E99.51754
G1 X110.716 Y96.858 E99.54421
G1 X141.034 Y96.858 E100.55259
G1 X141.34 Y96.117 E100.57925
G1 X126.016 Y80.792 E101.30007
G1 X125.875 Y80.651 E101.30435
M204 S5000
M205 X30 Y30
G0 F3600 X125.875 Y80.551
G0 X129.169 Y77.258
G0 X129.269 Y77.258
M204 S500
M205 X20 Y20
G1 F1800 X144.734 Y92.723 E102.03178
G1 X145.475 Y92.417 E102.05844
G1 X145.475 Y62.098 E103.06686
G1 X144.734 Y61.792 E103.09352
G1 X129.269 Y77.258 E103.82097
M204 S5000
M205 X30 Y30
G0 F3600 X129.169 Y77.258
G0 X125.875 Y73.964
G0 X125.875 Y73.864
M204 S500
M205 X20 Y20
G1 F1800 X141.34 Y58.399 E104.5484
G1 X141.034 Y57.658 E104.57506
G1 X110.716 Y57.658 E105.58344
G1 X110.41 Y58.399 E105.61011
G1 X125.875 Y73.864 E106.33753
M204 S5000
M205 X30 Y30
G0 F3600 X125.875 Y73.964
G0 X144.727 Y61.753
G0 X155.273 Y61.753
G0 X170.831 Y77.258
G0 X170.731 Y77.258
M204 S500
M205 X20 Y20
G1 F1800 X155.266 Y61.792 E107.06498
G1 X154.525 Y62.098 E107.09165
